X:1
T:The Valley of Decision
T:The Valley of Decision
T:Barney E. Warren, pub.1888
T:Daniel S. Warner, pub.1888
T:PUBLIC DOMAIN
T:PUBLIC DOMAIN
C:Barney E. Warren, pub.1888
Z:Daniel S. Warner, pub.1888
Z:PUBLIC DOMAIN
%%score ( 1 2 ) ( 3 4 )
L:1/8
Q:1/4=100
M:3/4
K:Ab
V:1 treble nm="Treble"
V:2 treble 
V:3 bass nm="Bass"
V:4 bass 
V:1
 [CE]3/2 [CE]/ | [DA]2 [DA]2 [EB]2 | (([Ec]2 [Ee]2)) [Ec]3/2 [EB]/ | [FA]2 [Fd]2 [Fc]2 | %4
w: 1.~All ye|peo- ple, come|down * to the|judg- ment be-|
w: 2.~Now the|na- tions are|sum- moned to ap-|pear be- fore|
w: 3.~Lo, what|mul- ti- tudes|en- ter this sweet|val- ley of|
w: 4.~All is|tran- quil and|ho- ly in the|val- ley of|
 [GB]4 [Ec]2 | [Ee]2 [Ec]2 [EA]2 | [FB]2 [Fd]2 [Ff] [Ff] | [Ee]2 [EA]2 [Ec]3/2 [DB]/ | %8
w: gun, The|stan- dard up-|lift- ed is *|shin- ing as the|
w: God, To|gath- er a|rem- nant made *|pure in Je- sus’|
w: choice, All|shout- ing their|tri- umph with *|loud ex- ult- ing|
w: love, Its|streams are sal-|va- tion, free- ly|flow- ing from a-|
 [CA]4 [EA]3/2 [EB]/ | [Ec]2 [Ae]2 [Ac]2 | (([Fd]2 [Ec]2)) [FB] [FA] | [DF]2 [FA]2 [DF]2 | [CE]4 | %13
w: sun; Who is|a- ble to|stand, * Heav- en’s|truth to en-|dure?|
w: blood; From the|val- ley of|judg- ment, where all|truth is the|test,|
w: voice; From all|sor- row and|sigh- ing He hath|giv- en re-|lease,|
w: bove; Eve- ry|foe is ex-|pired, * and our|weak- ness made|strong,|
 [CE]2 | [DF]2 [FA]2 [Ad]2 | [Ac]2 [GB]2 [EA]2 | [Ee]3 [Ec] [DB]2 | [CA]4 ||[M:4/4]"^Refrain" C D | %19
w: Pass|un- der the|blood and be|per- fect- ly|pure.|We have|
w: We|en- ter de-|ci- sion’s sweet|val- ley of|rest.||
w: Whose|com- ing is|near in the|val- ley of|peace.||
w: And|th’~vale of de-|ci- sion is|vo- cal with|song.||
 [CE]6 [EA]2 | [DF]6 [FA]2 | [CE]6 [EA]2 | [EB]6 [Ec]2 | [FA]6 [DF]2 | [CE]6 [Ec]2 | %25
w: come to|the deep|vale of|rest: All|calm and|pure, our|
w: ||||||
w: ||||||
w: ||||||
 [FA]2 [FA]2"^accel." [EG]3 [DG] | A6 |] %27
w: soul is ful- ly|blest.|
w: ||
w: ||
w: ||
V:2
 x2 | x6 | x6 | x6 | x6 | x6 | x6 | x6 | x6 | x6 | x6 | x6 | x4 | x2 | x6 | x6 | x6 | x4 || %18
[M:4/4] C D | x8 | x8 | x8 | x8 | x8 | x8 | x8 | C2 E D C2 |] %27
V:3
 [A,,A,]3/2 [A,,A,]/ | [D,A,]2 [D,A,]2 [E,B,]2 | (([A,C]2 [A,C]2)) [A,C]3/2 [A,C]/ | %3
w: |||
 [D,D]2 [D,D]2 [D,D]2 | [E,E]4 [A,C]2 | [A,C]2 [A,C]2 [A,C]2 | [D,D]2 [D,D]2 [D,D] [D,D] | %7
w: ||||
 [E,C]2 [E,C]2 [E,C]3/2 [E,B,]/ | [A,,A,]4 [A,,A,]3/2 [A,,A,]/ | [A,,A,]2 [A,,A,]2 [A,,A,]2 | %10
w: |||
 (([D,A,]2 [E,A,]2)) [D,F,] [D,A,] | [D,A,]2 [D,A,]2 [D,A,]2 | [A,,A,]4 | [A,,A,]2 | %14
w: ||||
 [D,A,]2 [D,D]2 [D,D]2 | [E,E]2 [E,D]2 [E,C]2 | [E,A,]3 [E,A,] [E,G,]2 | [A,,E,A,]4 || %18
w: ||||
[M:4/4] [A,,A,] [A,,A,] | [A,,A,]2 [A,,A,]2 [A,,A,]2 [A,,A,]2 | [D,A,]2 [D,A,]2 [D,A,]2 [D,A,]2 | %21
w: In this|val- ley of de-|ci- sion, reach- ing|
 [A,,A,]2 [A,,A,]2 [A,,A,]2 [C,A,]2 | [E,G,]2 [E,G,]2 [E,G,]2 [E,G,]2 | A,2 A,2 A,2 [D,A,]2 | %24
w: to the gates of|Heav- en, All are|pure and tran- quil|
 [A,,A,]2 [A,,A,]2 [A,,A,]2 [A,,A,]2 | [D,A,]2 [D,A,]2"^accel." [E,B,]3 [E,B,] | A,2 C B, A,2 |] %27
w: in our Sa- vior’s|sweet un- bro- ken|rest (ful- ly blest).|
V:4
 x2 | x6 | x6 | x6 | x6 | x6 | x6 | x6 | x6 | x6 | x6 | x6 | x4 | x2 | x6 | x6 | x6 | x4 || %18
[M:4/4] x2 | x8 | x8 | x8 | x8 | A,2 A,2 A,2 z2 | x8 | x8 | A,,6 |] %27

